pp/pill_print.svg

<svg viewBox="0 0 20 20" fill="none" xmlns="http://www.w3.org/2000/svg" height="1em" width="1em">
  <g clip-path="url(#a)">
    <g opacity="0.8">
      <path fill-rule="evenodd" clip-rule="evenodd" d="M6.06498 4.42894C7.66633 2.8276 10.2626 2.8276 11.864 4.42894L17.663 10.2279C19.2643 11.8293 19.2643 14.4256 17.663 16.0269V16.0269C16.0616 17.6283 13.4653 17.6283 11.864 16.0269L6.06498 10.2279C4.46364 8.62659 4.46364 6.03029 6.06498 4.42894V4.42894Z" fill="currentColor"/>
    </g>
    <path fill-rule="evenodd" clip-rule="evenodd" d="M15.8492 10.1924L9.48529 3.82843C7.92319 2.26633 5.39053 2.26633 3.82843 3.82843C2.26634 5.39052 2.26634 7.92318 3.82843 9.48528L10.1924 15.8492C11.7545 17.4113 14.2872 17.4113 15.8492 15.8492C17.4113 14.2871 17.4113 11.7545 15.8492 10.1924ZM4.53554 4.53553C5.70711 3.36396 7.60661 3.36396 8.77818 4.53553L15.1421 10.8995C16.3137 12.0711 16.3137 13.9706 15.1421 15.1421C13.9706 16.3137 12.0711 16.3137 10.8995 15.1421L4.53554 8.77817C3.36397 7.6066 3.36397 5.70711 4.53554 4.53553Z" fill="black"/>
    <path d="M13.0369 7.58066L12.7944 8.55081C11.5929 8.25043 10.571 8.39641 9.693 8.98176C8.82365 9.56133 8.23928 10.6688 7.96219 12.337L6.97571 12.1731C7.29422 10.2556 8.00765 8.90348 9.1383 8.14971C10.2603 7.40173 11.5718 7.21437 13.0369 7.58066Z" fill="black"/>
  </g>
  <defs>
    <clipPath id="a">
      <rect width="20" height="20" fill="white"/>
    </clipPath>
  </defs>
</svg>

<svg viewBox="0 0 20 20" fill="none" xmlns="http://www.w3.org/2000/svg" height="1em" width="1em">
  <g clip-path="url(#a)">
    <path fill-rule="evenodd" clip-rule="evenodd" d="M6.065 4.429a4.1 4.1 0 0 1 5.799 0l5.799 5.799a4.1 4.1 0 1 1-5.799 5.799l-5.799-5.8a4.1 4.1 0 0 1 0-5.798Z" fill="currentColor" opacity=".8"/>
    <path fill-rule="evenodd" clip-rule="evenodd" d="M15.85 10.192 9.484 3.828a4 4 0 0 0-5.657 5.657l6.364 6.364a4 4 0 1 0 5.657-5.657ZM4.535 4.536a3 3 0 0 1 4.242 0l6.364 6.364a3 3 0 1 1-4.242 4.242L4.535 8.778a3 3 0 0 1 0-4.242Z" fill="#000"/>
    <path d="m13.037 7.58-.243.97c-1.201-.3-2.223-.154-3.101.432-.87.58-1.454 1.687-1.73 3.355l-.987-.164c.318-1.917 1.032-3.27 2.162-4.023 1.122-.748 2.434-.936 3.899-.57Z" fill="#000"/>
  </g>
  <defs>
    <clipPath id="a">
      <path fill="#fff" d="M0 0h20v20H0z"/>
    </clipPath>
  </defs>
</svg>
